images/5461310.svg

<?xml version="1.0" encoding="UTF-8"?>
<svg xmlns="http://www.w3.org/2000/svg" xmlns:xlink="http://www.w3.org/1999/xlink" width="300pt" height="300pt" viewBox="0 0 300 300" version="1.1">
<defs>
<g>
<symbol overflow="visible" id="glyph0-0">
<path style="stroke:none;" d="M 0.546875 1.9375 L 0.546875 -7.75 L 6.046875 -7.75 L 6.046875 1.9375 Z M 1.171875 1.328125 L 5.4375 1.328125 L 5.4375 -7.140625 L 1.171875 -7.140625 Z M 1.171875 1.328125 "/>
</symbol>
<symbol overflow="visible" id="glyph0-1">
<path style="stroke:none;" d="M 4.328125 -7.28125 C 3.546875 -7.28125 2.921875 -6.984375 2.453125 -6.390625 C 1.992188 -5.804688 1.765625 -5.007812 1.765625 -4 C 1.765625 -2.988281 1.992188 -2.1875 2.453125 -1.59375 C 2.921875 -1.007812 3.546875 -0.71875 4.328125 -0.71875 C 5.117188 -0.71875 5.742188 -1.007812 6.203125 -1.59375 C 6.660156 -2.1875 6.890625 -2.988281 6.890625 -4 C 6.890625 -5.007812 6.660156 -5.804688 6.203125 -6.390625 C 5.742188 -6.984375 5.117188 -7.28125 4.328125 -7.28125 Z M 4.328125 -8.171875 C 5.453125 -8.171875 6.351562 -7.789062 7.03125 -7.03125 C 7.707031 -6.28125 8.046875 -5.269531 8.046875 -4 C 8.046875 -2.738281 7.707031 -1.726562 7.03125 -0.96875 C 6.351562 -0.21875 5.453125 0.15625 4.328125 0.15625 C 3.203125 0.15625 2.300781 -0.21875 1.625 -0.96875 C 0.957031 -1.71875 0.625 -2.726562 0.625 -4 C 0.625 -5.269531 0.957031 -6.28125 1.625 -7.03125 C 2.300781 -7.789062 3.203125 -8.171875 4.328125 -8.171875 Z M 4.328125 -8.171875 "/>
</symbol>
<symbol overflow="visible" id="glyph0-2">
<path style="stroke:none;" d="M 1.078125 -8.015625 L 2.546875 -8.015625 L 6.09375 -1.3125 L 6.09375 -8.015625 L 7.15625 -8.015625 L 7.15625 0 L 5.6875 0 L 2.125 -6.703125 L 2.125 0 L 1.078125 0 Z M 1.078125 -8.015625 "/>
</symbol>
<symbol overflow="visible" id="glyph0-3">
<path style="stroke:none;" d="M 1.078125 -8.015625 L 2.171875 -8.015625 L 2.171875 -4.734375 L 6.109375 -4.734375 L 6.109375 -8.015625 L 7.1875 -8.015625 L 7.1875 0 L 6.109375 0 L 6.109375 -3.8125 L 2.171875 -3.8125 L 2.171875 0 L 1.078125 0 Z M 1.078125 -8.015625 "/>
</symbol>
</g>
</defs>
<g id="surface32981">
<rect x="0" y="0" width="300" height="300" style="fill:rgb(100%,100%,100%);fill-opacity:1;stroke:none;"/>
<path style="fill:none;stroke-width:1.2;stroke-linecap:butt;stroke-linejoin:miter;stroke:rgb(0%,0%,0%);stroke-opacity:1;stroke-miterlimit:10;" d="M 35.25 113.429688 L 59.660156 101.335938 "/>
<path style="fill:none;stroke-width:1.2;stroke-linecap:butt;stroke-linejoin:miter;stroke:rgb(0%,0%,0%);stroke-opacity:1;stroke-miterlimit:10;" d="M 59.660156 101.335938 L 82.339844 116.433594 "/>
<path style="fill:none;stroke-width:1;stroke-linecap:butt;stroke-linejoin:miter;stroke:rgb(0%,0%,0%);stroke-opacity:1;stroke-miterlimit:10;" d="M 106.753906 104.339844 L 106.753906 104.339844 M 103.875 105.183594 L 104.335938 106.117188 M 100.996094 106.027344 L 101.921875 107.894531 M 98.117188 106.871094 L 99.503906 109.675781 M 95.238281 107.714844 L 97.089844 111.453125 M 92.359375 108.558594 L 94.671875 113.230469 M 89.480469 109.402344 L 92.257812 115.011719 M 86.601562 110.25 L 89.839844 116.789062 M 83.722656 111.09375 L 87.425781 118.566406 M 80.84375 111.9375 L 85.011719 120.347656 M 80.207031 112.125 L 84.476562 120.738281 "/>
<path style="fill:none;stroke-width:1.2;stroke-linecap:butt;stroke-linejoin:miter;stroke:rgb(0%,0%,0%);stroke-opacity:1;stroke-miterlimit:10;" d="M 106.753906 104.339844 L 121.847656 81.660156 "/>
<path style="fill:none;stroke-width:1.2;stroke-linecap:butt;stroke-linejoin:miter;stroke:rgb(0%,0%,0%);stroke-opacity:1;stroke-miterlimit:10;" d="M 133.941406 106.070312 L 106.753906 104.339844 "/>
<path style="fill:none;stroke-width:1.2;stroke-linecap:butt;stroke-linejoin:miter;stroke:rgb(0%,0%,0%);stroke-opacity:1;stroke-miterlimit:10;" d="M 121.847656 81.660156 L 133.941406 106.070312 "/>
<path style="fill:none;stroke-width:1;stroke-linecap:butt;stroke-linejoin:miter;stroke:rgb(0%,0%,0%);stroke-opacity:1;stroke-miterlimit:10;" d="M 133.941406 106.070312 L 133.941406 106.070312 M 136.921875 105.738281 L 136.628906 104.738281 M 139.902344 105.40625 L 139.316406 103.40625 M 142.886719 105.074219 L 142.003906 102.074219 M 145.867188 104.746094 L 144.691406 100.742188 M 148.847656 104.414062 L 147.382812 99.410156 M 151.832031 104.082031 L 150.070312 98.078125 M 154.8125 103.75 L 152.757812 96.746094 M 157.792969 103.417969 L 155.445312 95.414062 M 160.777344 103.085938 L 158.132812 94.082031 M 161.433594 103.011719 L 158.726562 93.785156 "/>
<path style="fill:none;stroke-width:1.2;stroke-linecap:butt;stroke-linejoin:miter;stroke:rgb(0%,0%,0%);stroke-opacity:1;stroke-miterlimit:10;" d="M 133.941406 106.070312 L 136.957031 133.148438 "/>
<path style="fill:none;stroke-width:1.2;stroke-linecap:butt;stroke-linejoin:miter;stroke:rgb(0%,0%,0%);stroke-opacity:1;stroke-miterlimit:10;" d="M 160.082031 98.398438 L 166.507812 71.925781 "/>
<path style="fill:none;stroke-width:1.2;stroke-linecap:butt;stroke-linejoin:miter;stroke:rgb(0%,0%,0%);stroke-opacity:1;stroke-miterlimit:10;" d="M 166.507812 71.925781 L 192.648438 64.253906 "/>
<path style="fill:none;stroke-width:1;stroke-linecap:butt;stroke-linejoin:miter;stroke:rgb(0%,0%,0%);stroke-opacity:1;stroke-miterlimit:10;" d="M 136.957031 133.148438 L 136.957031 133.148438 M 139.453125 134.808594 L 139.871094 133.855469 M 141.949219 136.472656 L 142.785156 134.5625 M 144.449219 138.132812 L 145.703125 135.269531 M 146.945312 139.796875 L 148.617188 135.976562 M 149.441406 141.460938 L 151.53125 136.683594 M 151.9375 143.121094 L 154.449219 137.390625 M 154.4375 144.785156 L 157.363281 138.097656 M 156.933594 146.445312 L 160.277344 138.804688 M 159.429688 148.109375 L 163.195312 139.511719 M 159.984375 148.476562 L 163.839844 139.667969 "/>
<path style="fill:none;stroke-width:1.2;stroke-linecap:butt;stroke-linejoin:miter;stroke:rgb(0%,0%,0%);stroke-opacity:1;stroke-miterlimit:10;" d="M 136.957031 133.148438 L 125.984375 141.222656 "/>
<path style="fill:none;stroke-width:1.2;stroke-linecap:butt;stroke-linejoin:miter;stroke:rgb(0%,0%,100%);stroke-opacity:1;stroke-miterlimit:10;" d="M 125.984375 141.222656 L 115.015625 149.296875 "/>
<path style="fill:none;stroke-width:1.2;stroke-linecap:butt;stroke-linejoin:miter;stroke:rgb(0%,0%,0%);stroke-opacity:1;stroke-miterlimit:10;" d="M 161.910156 144.074219 L 164.925781 171.148438 "/>
<path style="fill:none;stroke-width:1.2;stroke-linecap:butt;stroke-linejoin:miter;stroke:rgb(0%,0%,0%);stroke-opacity:1;stroke-miterlimit:10;" d="M 168.582031 146.070312 L 170.996094 167.730469 "/>
<path style="fill:none;stroke-width:1.2;stroke-linecap:butt;stroke-linejoin:miter;stroke:rgb(0%,0%,0%);stroke-opacity:1;stroke-miterlimit:10;" d="M 183.851562 127.925781 L 161.910156 144.074219 "/>
<path style="fill:none;stroke-width:1.2;stroke-linecap:butt;stroke-linejoin:miter;stroke:rgb(0%,0%,0%);stroke-opacity:1;stroke-miterlimit:10;" d="M 164.925781 171.148438 L 189.882812 182.078125 "/>
<path style="fill:none;stroke-width:1.2;stroke-linecap:butt;stroke-linejoin:miter;stroke:rgb(0%,0%,0%);stroke-opacity:1;stroke-miterlimit:10;" d="M 189.882812 182.078125 L 211.824219 165.925781 "/>
<path style="fill:none;stroke-width:1.2;stroke-linecap:butt;stroke-linejoin:miter;stroke:rgb(0%,0%,0%);stroke-opacity:1;stroke-miterlimit:10;" d="M 188.277344 175.296875 L 205.828125 162.378906 "/>
<path style="fill:none;stroke-width:1.2;stroke-linecap:butt;stroke-linejoin:miter;stroke:rgb(0%,0%,0%);stroke-opacity:1;stroke-miterlimit:10;" d="M 211.824219 165.925781 L 208.808594 138.851562 "/>
<path style="fill:none;stroke-width:1.2;stroke-linecap:butt;stroke-linejoin:miter;stroke:rgb(0%,0%,0%);stroke-opacity:1;stroke-miterlimit:10;" d="M 211.824219 165.925781 L 236.777344 176.855469 "/>
<path style="fill:none;stroke-width:1.2;stroke-linecap:butt;stroke-linejoin:miter;stroke:rgb(0%,0%,0%);stroke-opacity:1;stroke-miterlimit:10;" d="M 208.808594 138.851562 L 183.851562 127.925781 "/>
<path style="fill:none;stroke-width:1.2;stroke-linecap:butt;stroke-linejoin:miter;stroke:rgb(0%,0%,0%);stroke-opacity:1;stroke-miterlimit:10;" d="M 203.742188 143.628906 L 183.777344 134.890625 "/>
<path style="fill:none;stroke-width:1.2;stroke-linecap:butt;stroke-linejoin:miter;stroke:rgb(0%,0%,0%);stroke-opacity:1;stroke-miterlimit:10;" d="M 238.679688 179.433594 L 249.648438 171.359375 "/>
<path style="fill:none;stroke-width:1.2;stroke-linecap:butt;stroke-linejoin:miter;stroke:rgb(100%,0%,0%);stroke-opacity:1;stroke-miterlimit:10;" d="M 249.648438 171.359375 L 260.621094 163.285156 "/>
<path style="fill:none;stroke-width:1.2;stroke-linecap:butt;stroke-linejoin:miter;stroke:rgb(0%,0%,0%);stroke-opacity:1;stroke-miterlimit:10;" d="M 234.878906 174.273438 L 245.851562 166.199219 "/>
<path style="fill:none;stroke-width:1.2;stroke-linecap:butt;stroke-linejoin:miter;stroke:rgb(100%,0%,0%);stroke-opacity:1;stroke-miterlimit:10;" d="M 245.851562 166.199219 L 256.820312 158.125 "/>
<path style="fill:none;stroke-width:1.2;stroke-linecap:butt;stroke-linejoin:miter;stroke:rgb(0%,0%,0%);stroke-opacity:1;stroke-miterlimit:10;" d="M 236.777344 176.855469 L 238.285156 190.390625 "/>
<path style="fill:none;stroke-width:1.2;stroke-linecap:butt;stroke-linejoin:miter;stroke:rgb(100%,0%,0%);stroke-opacity:1;stroke-miterlimit:10;" d="M 238.285156 190.390625 L 239.792969 203.929688 "/>
<path style=" stroke:none;fill-rule:nonzero;fill:rgb(100%,100%,100%);fill-opacity:1;" d="M 254.71875 154.207031 L 263.71875 154.207031 L 263.71875 167.207031 L 254.71875 167.207031 Z M 254.71875 154.207031 "/>
<g style="fill:rgb(100%,0%,0%);fill-opacity:1;">
  <use xlink:href="#glyph0-1" x="254.71875" y="164.108398"/>
</g>
<path style="fill:none;stroke-width:1.2;stroke-linecap:butt;stroke-linejoin:miter;stroke:rgb(100%,0%,0%);stroke-opacity:1;stroke-miterlimit:10;" d="M 239.792969 203.929688 L 252.273438 209.394531 "/>
<path style="fill:none;stroke-width:1.2;stroke-linecap:butt;stroke-linejoin:miter;stroke:rgb(0%,0%,0%);stroke-opacity:1;stroke-miterlimit:10;" d="M 252.273438 209.394531 L 264.75 214.855469 "/>
<path style=" stroke:none;fill-rule:nonzero;fill:rgb(100%,100%,100%);fill-opacity:1;" d="M 235.792969 197.429688 L 244.792969 197.429688 L 244.792969 210.429688 L 235.792969 210.429688 Z M 235.792969 197.429688 "/>
<g style="fill:rgb(100%,0%,0%);fill-opacity:1;">
  <use xlink:href="#glyph0-1" x="235.792969" y="207.331055"/>
</g>
<path style="fill:none;stroke-width:1.2;stroke-linecap:butt;stroke-linejoin:miter;stroke:rgb(0%,0%,100%);stroke-opacity:1;stroke-miterlimit:10;" d="M 115.015625 149.296875 L 116.523438 162.832031 "/>
<path style="fill:none;stroke-width:1.2;stroke-linecap:butt;stroke-linejoin:miter;stroke:rgb(0%,0%,0%);stroke-opacity:1;stroke-miterlimit:10;" d="M 116.523438 162.832031 L 118.03125 176.371094 "/>
<path style=" stroke:none;fill-rule:nonzero;fill:rgb(100%,100%,100%);fill-opacity:1;" d="M 107.015625 142.796875 L 124.015625 142.796875 L 124.015625 155.796875 L 107.015625 155.796875 Z M 107.015625 142.796875 "/>
<g style="fill:rgb(0%,0%,100%);fill-opacity:1;">
  <use xlink:href="#glyph0-2" x="107.015625" y="152.698242"/>
  <use xlink:href="#glyph0-3" x="114.999023" y="152.698242"/>
</g>
<path style="fill:none;stroke-width:1.2;stroke-linecap:butt;stroke-linejoin:miter;stroke:rgb(0%,0%,0%);stroke-opacity:1;stroke-miterlimit:10;" d="M 116.746094 179.308594 L 129.222656 184.769531 "/>
<path style="fill:none;stroke-width:1.2;stroke-linecap:butt;stroke-linejoin:miter;stroke:rgb(100%,0%,0%);stroke-opacity:1;stroke-miterlimit:10;" d="M 129.222656 184.769531 L 141.699219 190.234375 "/>
<path style="fill:none;stroke-width:1.2;stroke-linecap:butt;stroke-linejoin:miter;stroke:rgb(0%,0%,0%);stroke-opacity:1;stroke-miterlimit:10;" d="M 119.316406 173.433594 L 131.792969 178.898438 "/>
<path style="fill:none;stroke-width:1.2;stroke-linecap:butt;stroke-linejoin:miter;stroke:rgb(100%,0%,0%);stroke-opacity:1;stroke-miterlimit:10;" d="M 131.792969 178.898438 L 144.269531 184.363281 "/>
<path style="fill:none;stroke-width:1.2;stroke-linecap:butt;stroke-linejoin:miter;stroke:rgb(0%,0%,0%);stroke-opacity:1;stroke-miterlimit:10;" d="M 118.03125 176.371094 L 96.089844 192.519531 "/>
<path style=" stroke:none;fill-rule:nonzero;fill:rgb(100%,100%,100%);fill-opacity:1;" d="M 138.984375 180.796875 L 147.984375 180.796875 L 147.984375 193.796875 L 138.984375 193.796875 Z M 138.984375 180.796875 "/>
<g style="fill:rgb(100%,0%,0%);fill-opacity:1;">
  <use xlink:href="#glyph0-1" x="138.984375" y="190.698242"/>
</g>
<path style="fill:none;stroke-width:1.2;stroke-linecap:butt;stroke-linejoin:miter;stroke:rgb(0%,0%,0%);stroke-opacity:1;stroke-miterlimit:10;" d="M 96.089844 192.519531 L 99.105469 219.597656 "/>
<path style="fill:none;stroke-width:1.2;stroke-linecap:butt;stroke-linejoin:miter;stroke:rgb(0%,0%,0%);stroke-opacity:1;stroke-miterlimit:10;" d="M 90.019531 195.9375 L 92.433594 217.597656 "/>
<path style="fill:none;stroke-width:1.2;stroke-linecap:butt;stroke-linejoin:miter;stroke:rgb(0%,0%,0%);stroke-opacity:1;stroke-miterlimit:10;" d="M 71.132812 181.59375 L 96.089844 192.519531 "/>
<path style="fill:none;stroke-width:1.2;stroke-linecap:butt;stroke-linejoin:miter;stroke:rgb(0%,0%,0%);stroke-opacity:1;stroke-miterlimit:10;" d="M 99.105469 219.597656 L 77.164062 235.746094 "/>
<path style="fill:none;stroke-width:1.2;stroke-linecap:butt;stroke-linejoin:miter;stroke:rgb(0%,0%,0%);stroke-opacity:1;stroke-miterlimit:10;" d="M 77.164062 235.746094 L 52.207031 224.816406 "/>
<path style="fill:none;stroke-width:1.2;stroke-linecap:butt;stroke-linejoin:miter;stroke:rgb(0%,0%,0%);stroke-opacity:1;stroke-miterlimit:10;" d="M 77.238281 228.78125 L 57.273438 220.039062 "/>
<path style="fill:none;stroke-width:1.2;stroke-linecap:butt;stroke-linejoin:miter;stroke:rgb(0%,0%,0%);stroke-opacity:1;stroke-miterlimit:10;" d="M 52.207031 224.816406 L 49.191406 197.742188 "/>
<path style="fill:none;stroke-width:1.2;stroke-linecap:butt;stroke-linejoin:miter;stroke:rgb(0%,0%,0%);stroke-opacity:1;stroke-miterlimit:10;" d="M 49.191406 197.742188 L 71.132812 181.59375 "/>
<path style="fill:none;stroke-width:1.2;stroke-linecap:butt;stroke-linejoin:miter;stroke:rgb(0%,0%,0%);stroke-opacity:1;stroke-miterlimit:10;" d="M 55.1875 201.289062 L 72.738281 188.371094 "/>
</g>
</svg>

<svg xmlns="http://www.w3.org/2000/svg" xmlns:xlink="http://www.w3.org/1999/xlink" width="300pt" height="300pt" viewBox="0 0 300 300"><defs><symbol overflow="visible"><path d="M.547 1.938V-7.75h5.5v9.688zm.625-.61h4.266v-8.47H1.171zm0 0"/></symbol><symbol overflow="visible" id="a"><path d="M4.328-7.28c-.78 0-1.406.296-1.875.89-.46.585-.687 1.382-.687 2.39 0 1.012.226 1.813.687 2.406.47.586 1.094.875 1.875.875.79 0 1.414-.288 1.875-.874.457-.593.688-1.394.688-2.406 0-1.008-.23-1.805-.687-2.39-.46-.594-1.086-.89-1.875-.89zm0-.892c1.125 0 2.024.383 2.703 1.14C7.708-6.28 8.048-5.27 8.048-4c0 1.262-.34 2.273-1.016 3.03C6.353-.22 5.454.157 4.33.157S2.3-.22 1.625-.97c-.668-.75-1-1.757-1-3.03 0-1.27.332-2.28 1-3.03.676-.76 1.578-1.142 2.703-1.142zm0 0"/></symbol><symbol overflow="visible" id="b"><path d="M1.078-8.016h1.47l3.546 6.704v-6.704h1.062V0H5.688L2.124-6.703V0H1.078zm0 0"/></symbol><symbol overflow="visible" id="c"><path d="M1.078-8.016h1.094v3.282H6.11v-3.282h1.077V0H6.11v-3.813H2.17V0H1.078zm0 0"/></symbol></defs><g><path fill="#fff" d="M0 0h300v300H0z"/><path d="M35.25 113.43l24.41-12.094M59.66 101.336l22.68 15.098" stroke-width="1.2" stroke="#000" stroke-miterlimit="10" fill="none"/><path d="M106.754 104.34m-2.88.844l.462.933m-3.34-.09l.926 1.868m-3.805-1.024l1.387 2.806m-4.266-1.96l1.852 3.737m-4.73-2.894l2.312 4.67m-5.192-3.828l2.778 5.61m-5.656-4.762l3.238 6.54m-6.117-5.696l3.703 7.472m-6.582-6.63l4.168 8.412m-4.805-8.223l4.27 8.613" stroke="#000" stroke-miterlimit="10" fill="none"/><path d="M106.754 104.34l15.094-22.68M133.94 106.07l-27.186-1.73M121.848 81.66l12.093 24.41" stroke-width="1.2" stroke="#000" stroke-miterlimit="10" fill="none"/><path d="M133.94 106.07m2.982-.332l-.293-1m3.272.668l-.586-2m3.57 1.668l-.882-3m3.863 2.672l-1.176-4.004m4.158 3.672l-1.465-5.004m4.45 4.672l-1.763-6.004m4.743 5.672l-2.055-7.004m5.035 6.672l-2.348-8.004m5.332 7.672l-2.644-9.004m3.3 8.93l-2.706-9.227" stroke="#000" stroke-miterlimit="10" fill="none"/><path d="M133.94 106.07l3.017 27.078M160.082 98.398l6.426-26.472M166.508 71.926l26.14-7.672" stroke-width="1.2" stroke="#000" stroke-miterlimit="10" fill="none"/><path d="M136.957 133.148m2.496 1.66l.418-.953m2.08 2.618l.835-1.91m1.664 3.57l1.253-2.863m1.242 4.527l1.672-3.82m.824 5.484l2.09-4.776m.407 6.437l2.512-5.73m-.012 7.395l2.925-6.687m-.43 8.347l3.344-7.64m-.847 9.304l3.765-8.598m-3.21 8.965l3.855-8.81" stroke="#000" stroke-miterlimit="10" fill="none"/><path d="M136.957 133.148l-10.973 8.075" stroke-width="1.2" stroke="#000" stroke-miterlimit="10" fill="none"/><path d="M125.984 141.223l-10.968 8.074" stroke-width="1.2" stroke="#00f" stroke-miterlimit="10" fill="none"/><path d="M161.91 144.074l3.016 27.074M168.582 146.07l2.414 21.66M183.852 127.926l-21.942 16.148M164.926 171.148l24.957 10.93M189.883 182.078l21.94-16.152M188.277 175.297l17.55-12.918M211.824 165.926l-3.015-27.074M211.824 165.926l24.953 10.93M208.81 138.852l-24.958-10.926M203.742 143.63l-19.965-8.74M238.68 179.434l10.968-8.075" stroke-width="1.2" stroke="#000" stroke-miterlimit="10" fill="none"/><path d="M249.648 171.36l10.973-8.075" stroke-width="1.2" stroke="#f00" stroke-miterlimit="10" fill="none"/><path d="M234.88 174.273l10.972-8.074" stroke-width="1.2" stroke="#000" stroke-miterlimit="10" fill="none"/><path d="M245.852 166.2l10.968-8.075" stroke-width="1.2" stroke="#f00" stroke-miterlimit="10" fill="none"/><path d="M236.777 176.855l1.508 13.536" stroke-width="1.2" stroke="#000" stroke-miterlimit="10" fill="none"/><path d="M238.285 190.39l1.508 13.54" stroke-width="1.2" stroke="#f00" stroke-miterlimit="10" fill="none"/><path d="M254.72 154.207h9v13h-9zm0 0" fill="#fff"/><use xlink:href="#a" x="254.719" y="164.108" fill="#f00"/><path d="M239.793 203.93l12.48 5.465" stroke-width="1.2" stroke="#f00" stroke-miterlimit="10" fill="none"/><path d="M252.273 209.395l12.477 5.46" stroke-width="1.2" stroke="#000" stroke-miterlimit="10" fill="none"/><path d="M235.793 197.43h9v13h-9zm0 0" fill="#fff"/><use xlink:href="#a" x="235.793" y="207.331" fill="#f00"/><path d="M115.016 149.297l1.507 13.535" stroke-width="1.2" stroke="#00f" stroke-miterlimit="10" fill="none"/><path d="M116.523 162.832l1.508 13.54" stroke-width="1.2" stroke="#000" stroke-miterlimit="10" fill="none"/><path d="M107.016 142.797h17v13h-17zm0 0" fill="#fff"/><g fill="#00f"><use xlink:href="#b" x="107.016" y="152.698"/><use xlink:href="#c" x="114.999" y="152.698"/></g><path d="M116.746 179.31l12.477 5.46" stroke-width="1.2" stroke="#000" stroke-miterlimit="10" fill="none"/><path d="M129.223 184.77l12.476 5.464" stroke-width="1.2" stroke="#f00" stroke-miterlimit="10" fill="none"/><path d="M119.316 173.434l12.477 5.464" stroke-width="1.2" stroke="#000" stroke-miterlimit="10" fill="none"/><path d="M131.793 178.898l12.477 5.465" stroke-width="1.2" stroke="#f00" stroke-miterlimit="10" fill="none"/><path d="M118.03 176.37l-21.94 16.15" stroke-width="1.2" stroke="#000" stroke-miterlimit="10" fill="none"/><path d="M138.984 180.797h9v13h-9zm0 0" fill="#fff"/><use xlink:href="#a" x="138.984" y="190.698" fill="#f00"/><path d="M96.09 192.52l3.015 27.078M90.02 195.938l2.414 21.66M71.133 181.594L96.09 192.52M99.105 219.598l-21.94 16.148M77.164 235.746l-24.957-10.93M77.238 228.78l-19.965-8.74M52.207 224.816l-3.016-27.074M49.19 197.742l21.943-16.148M55.188 201.29l17.55-12.92" stroke-width="1.2" stroke="#000" stroke-miterlimit="10" fill="none"/></g></svg>
